_includes/svg/sets/1997.svg

<svg xmlns="http://www.w3.org/2000/svg" width="800" height="450" viewBox="0 0 800 450"><path d="M0 0h800v450h-800z"/><path stroke="#fff" stroke-miterlimit="10" d="M67.5 269.5l8.862-14m94.76-4.31l11.546-18.19m-117.668 1247.5" fill="none"/><path d="M697.5 323c0 42.5-57 92.5-307.5 81.5-122.38-5.37-265-67.63-265-108.5 0-10.49 4.44-19.2 12.35-26.5 8.02-7.42 19.6-13.39 33.77-18.31 8.87-3.091 17.91-5.761 28.54-8.131 0 0-.16.391 2.84 1.021v.01c2 .53 5.65 1.24 9.21 2.05-38.81 12.35-65.21 29.76-65.21 49.86 0 40.87 128.25 93.5 263.75 99.5 171.07 7.58 273.625-19.5 273.625-70.5 0-44.05-134.378-79.72-241.867-93.52 4.18-1.421 8.411-2.921 12.631-4.511 70.59 7.66 143.166 25.2 190.355 47.07 32.12 14.891 52.506 31.791 52.506 48.961z" stroke="#fff" stroke-miterlimit="10"/><path d="M711-273v146.96c-53-5.06-115-8.86-184-10.99v-135.97h184zm-589 415.78v-142.78h125v136.26c.17-.01-125 6.52-125 6.52z" fill="#D1A322"/><path d="M200.514 243.064s116.259 35.697 254.154-16.096" stroke="#fff" stroke-miterlimit="10" fill="none"/><g stroke="#fff" stroke-miterlimit="10" fill="none"><path d="M-11.79 157.192c90.494-14.083 234.544-23.192 396.79-23.192 177.206 0 332.707 10.867 420.43 27.213m-817.871 15.081c90.453-14.141 234.806-23.294 397.441-23.294 177.206 0 332.707 11.236 420.43 33.493m-816.722 2.977c89.136-13.67 240.084-21.47 411.292-21.47 167.513 0 315.631 16.068 405.434 35.877m-292.934-67.877v-136m184 148v-148m-450 136v-136m-125 142v-142"/><path d="M799.5 160.22v24.92c-88-21.35-241.391-32.14-415-32.14-155.37 0-294 8.35-385 21.42v-18.99c91-13.08 229.63-21.43 385-21.43 173.609 0 327 10.43 415 26.22z"/></g><g fill="none"><path d="M294 181s-249-76-300-76" stroke="#000" stroke-width="6"/><path d="M294 181s-249-76-300-76" stroke="#fff" stroke-width="2"/><path d="M294 206s-249-76-300-76" stroke="#000" stroke-width="6"/><path d="M294 206s-249-76-300-76" stroke="#fff" stroke-width="2"/><path d="M288 222s-249-76-300-76" stroke="#000" stroke-width="6"/><path d="M288 222s-249-76-300-76" stroke="#fff" stroke-width="2"/><path d="M288 247s-249-76-300-76" stroke="#000" stroke-width="6"/><path d="M288 247s-249-76-300-76" stroke="#fff" stroke-width="2"/></g><path d="M433.942 230.474m20.726-3.507c118.653 12.887 242.832 53.645 242.832 96.033 0 42.5-57 92.5-307.5 81.5-122.382-5.374-265-67.631-265-108.5 0-27.762 31.067-43.07 75.514-52.937M577.5 416v34m-411-89v89m-20.538-164.427 550.788 69.427c0 31-66.645 71-284.132 71-150.348 0-288.118-75.333-288.118-107v-25m572 29v32m-549.5 60l19.336-37" stroke="#fff" stroke-miterlimit="10" fill="none"/><g stroke="#fff" stroke-miterlimit="10"><path d="M556.666 244.706m248.765 40.066s-80.128-18.266-154.65-30.132m-504.281 93.36v67.5h-80v-145h71.5m0-38l44.668.5m-12.667-14l-9.331 13.75m52.957-7.75l-9.433 19.088m-204.194-5.422s65.362 5.138 76.362 9.138m-76.362 12.528s62.724-8.724 76.362-12.528m-76.362-48.805s149.001 14.334 170.001 20.001" fill="none"/><path d="M147.5 240.751l-40-34.543-16.833 18.896-13 9.699-1.305 21.697h58.638z"/></g><path fill="#fff" d="M281.667 264l-25.667 25.334 66.334 1.834 19.333-27.168z"/><g stroke="#fff" stroke-miterlimit="10"><path d="M392.5 174.75l3.75 59.045-29.372 9.268c15.5-.5 12.56 21.969 12.56 21.969l37.282-14.891c6.001.078 4.904-20.977 4.904-20.977s-6.026-48.46-6.693-63.127l-6.965-17.351-36.149-21.342-11.317-10.344v-2l5.334-2.666s3.041-14.667 2.375-29.001-10.007-22.75-18.938-25.667c-13.272-4.334-25.999 3.334-31.333 11.667s-6.303 11-6.636 16.667l4.349 2.667 1.679 16.333-2.998 8 4.001.667 1 16.333 3.667 2.5-18.75 9s-15.199 7.57-16.09 11.5c-4.14 18.24.341 66 .341 66v31l-17.606 12.345s12.333-1.625 14.356 2.395c2.5 4.968 2.125 12.407 2.125 12.407l27.125-26.812v-76.335"/><path d="M279.94 259.062s-16.522 6.497-16.668 9.066c-.159 2.797 1.806 3.312 2.729 2.926 3.999-1.678 8.749-4.72 8.749-4.72s.099 14.271 2.917 16c3.266 2.003 14.999-4.751 14.999-4.751.191-2.545-.133-15.454-12.726-18.521z"/></g><g stroke="#fff" stroke-miterlimit="10" fill="none"><path d="M454.668 269s-.712 4.204 2.62-15.462c1.177-6.946 11.724-11.825 14.047-12.526M433.335 238.337s16.999 17.187 18.333 30.402m112.331-24.033l13-41.036 83.333 25.667s-17.185 43.832-15.326 44.705"/></g><path d="M566.002 336.334s-2.338-17.334 11.998-25.667" stroke="#000" stroke-miterlimit="10" fill="none"/><path d="M369.049 243.146s-16.888 7.235-18.776 8.983c-1.522 1.409-1.05 2.611-.159 3.065 1.887.962 11.221-1.656 11.221-1.656s.515 11.068 3.333 12.797c3.266 2.003 14.968-3.278 14.968-3.278s3.352-16.517-10.587-19.911z" stroke="#fff"/><ellipse cx="470.167" cy="241.781" rx="3.5" ry="2.925" fill="#fff" stroke="#000"/><ellipse cx="433.167" cy="237.781" rx="3.5" ry="2.925" fill="#fff" stroke="#000"/><path d="M697.5 13s97.069 9 102.5 12m-102.5 0s97.069 9 102.5 12m-102.5 0s97.069 9 102.5 12m-102.5 0s97.069 9 102.5 12m-102.5 0s97.069 9 102.5 12m-102.5 0s97.069 9 102.5 12m-102.5 0s97.069 9 102.5 12m-102.5 0s97.069 9 102.5 12m-102.5 0s97.069 9 102.5 12m-102.5 0s97.069 9 102.5 12m-102.5 0s97.069 9 102.5 12m-678-143.5h125m-125 14h125m-125 14h125m-125 14h125m-125 14h125m-125 14h125m-125 14h125m-125 14h125m-125 14h125m-125 14h125" stroke="#fff" stroke-miterlimit="10" fill="none"/><g fill="none"><path d="M613 460s-370.667 108-488-82c-4.973-8.053-8.667-28.799 13-31.388" stroke="#000" stroke-width="6"/><path d="M613 460s-370.667 108-488-82c-4.973-8.053-8.667-28.799 13-31.388" stroke="#fff" stroke-width="2"/><path d="M605 476s-370.667 108-488-82" stroke="#000" stroke-width="6"/><path d="M605 476s-370.667 108-488-82" stroke="#fff" stroke-width="2"/></g></svg>

<svg xmlns="http://www.w3.org/2000/svg" width="800" height="450" viewBox="0 0 800 450"><g><path d="M0 0h800v450h-800z"/><path stroke="#fff" stroke-miterlimit="10" fill="none" d="M67.5 269.5l8.862-14M171.122 251.19l11.546-18.19M65 1480.5"/></g><path d="M697.5 323c0 42.5-57 92.5-307.5 81.5-122.38-5.37-265-67.63-265-108.5 0-10.49 4.44-19.2 12.35-26.5 8.02-7.42 19.6-13.39 33.77-18.31 8.87-3.091 17.91-5.761 28.54-8.131 0 0-.16.391 2.84 1.021v.01c2 .53 5.65 1.24 9.21 2.05-38.81 12.35-65.21 29.76-65.21 49.86 0 40.87 128.25 93.5 263.75 99.5 171.07 7.58 273.625-19.5 273.625-70.5 0-44.05-134.378-79.72-241.867-93.52 4.18-1.421 8.411-2.921 12.631-4.511 70.59 7.66 143.166 25.2 190.355 47.07 32.12 14.891 52.506 31.791 52.506 48.961z" stroke="#fff" stroke-miterlimit="10"/><g><path d="M711-273v146.96c-53-5.06-115-8.86-184-10.99v-135.97h184zM122 142.78v-142.78h125v136.26c.17-.01-125 6.52-125 6.52z" fill="#D1A322"/><path d="M200.514 243.064s116.259 35.697 254.154-16.096" stroke="#fff" stroke-miterlimit="10" fill="none"/></g><g stroke="#fff" stroke-miterlimit="10" fill="none"><path d="M-11.79 157.192c90.494-14.083 234.544-23.192 396.79-23.192 177.206 0 332.707 10.867 420.43 27.213M-12.441 176.294c90.453-14.141 234.806-23.294 397.441-23.294 177.206 0 332.707 11.236 420.43 33.493M-11.292 189.47c89.136-13.67 240.084-21.47 411.292-21.47 167.513 0 315.631 16.068 405.434 35.877M512.5 136v-136M696.5 148v-148M246.5 136v-136M121.5 142v-142"/><path d="M799.5 160.22v24.92c-88-21.35-241.391-32.14-415-32.14-155.37 0-294 8.35-385 21.42v-18.99c91-13.08 229.63-21.43 385-21.43 173.609 0 327 10.43 415 26.22z"/></g><g stroke-miterlimit="10" fill="none"><path d="M294 181s-249-76-300-76" stroke="#000" stroke-width="6"/><path d="M294 181s-249-76-300-76" stroke="#fff" stroke-width="2"/><path d="M294 206s-249-76-300-76" stroke="#000" stroke-width="6"/><path d="M294 206s-249-76-300-76" stroke="#fff" stroke-width="2"/><path d="M288 222s-249-76-300-76" stroke="#000" stroke-width="6"/><path d="M288 222s-249-76-300-76" stroke="#fff" stroke-width="2"/><path d="M288 247s-249-76-300-76" stroke="#000" stroke-width="6"/><path d="M288 247s-249-76-300-76" stroke="#fff" stroke-width="2"/></g><g stroke="#fff" stroke-miterlimit="10" fill="none"><path d="M433.942 230.474M454.668 226.967c118.653 12.887 242.832 53.645 242.832 96.033 0 42.5-57 92.5-307.5 81.5-122.382-5.374-265-67.631-265-108.5 0-27.762 31.067-43.07 75.514-52.937"/></g><g stroke="#fff" stroke-miterlimit="10" fill="none"><path d="M577.5 416v34M166.5 361v89M145.962 285.573M696.75 355c0 31-66.645 71-284.132 71-150.348 0-288.118-75.333-288.118-107v-25M696.5 323v32M147 415l19.336-37"/></g><g stroke="#fff" stroke-miterlimit="10"><path d="M556.666 244.706M805.431 284.772s-80.128-18.266-154.65-30.132M146.5 348v67.5h-80v-145h71.5M138 232.5l44.668.5M170.001 219l-9.331 13.75M213.627 225l-9.433 19.088M0 238.666s65.362 5.138 76.362 9.138M0 260.332s62.724-8.724 76.362-12.528M0 198.999s149.001 14.334 170.001 20.001" fill="none"/><path d="M147.5 240.751l-40-34.543-16.833 18.896-13 9.699-1.305 21.697h58.638z"/></g><path fill="#fff" d="M281.667 264l-25.667 25.334 66.334 1.834 19.333-27.168z"/><g stroke="#fff" stroke-miterlimit="10"><path d="M392.5 174.75l3.75 59.045-29.372 9.268c15.5-.5 12.56 21.969 12.56 21.969l37.282-14.891c6.001.078 4.904-20.977 4.904-20.977s-6.026-48.46-6.693-63.127l-6.965-17.351-36.149-21.342-11.317-10.344v-2l5.334-2.666s3.041-14.667 2.375-29.001-10.007-22.75-18.938-25.667c-13.272-4.334-25.999 3.334-31.333 11.667s-6.303 11-6.636 16.667l4.349 2.667 1.679 16.333-2.998 8 4.001.667 1 16.333 3.667 2.5-18.75 9s-15.199 7.57-16.09 11.5c-4.14 18.24.341 66 .341 66v31l-17.606 12.345s12.333-1.625 14.356 2.395c2.5 4.968 2.125 12.407 2.125 12.407l27.125-26.812v-76.335"/><path d="M279.94 259.062s-16.522 6.497-16.668 9.066c-.159 2.797 1.806 3.312 2.729 2.926 3.999-1.678 8.749-4.72 8.749-4.72s.099 14.271 2.917 16c3.266 2.003 14.999-4.751 14.999-4.751.191-2.545-.133-15.454-12.726-18.521z"/></g><g stroke="#fff" stroke-miterlimit="10" fill="none"><path d="M454.668 269s-.712 4.204 2.62-15.462c1.177-6.946 11.724-11.825 14.047-12.526" stroke-linejoin="bevel"/><path d="M433.335 238.337s16.999 17.187 18.333 30.402M563.999 244.706l13-41.036 83.333 25.667s-17.185 43.832-15.326 44.705"/></g><path d="M566.002 336.334s-2.338-17.334 11.998-25.667" stroke="#000" stroke-miterlimit="10" fill="none"/><g stroke-miterlimit="10"><path d="M369.049 243.146s-16.888 7.235-18.776 8.983c-1.522 1.409-1.05 2.611-.159 3.065 1.887.962 11.221-1.656 11.221-1.656s.515 11.068 3.333 12.797c3.266 2.003 14.968-3.278 14.968-3.278s3.352-16.517-10.587-19.911z" stroke="#fff"/><ellipse cx="470.167" cy="241.781" rx="3.5" ry="2.925" fill="#fff" stroke="#000"/><ellipse cx="433.167" cy="237.781" rx="3.5" ry="2.925" fill="#fff" stroke="#000"/></g><g><path d="M697.5 13s97.069 9 102.5 12M697.5 25s97.069 9 102.5 12M697.5 37s97.069 9 102.5 12M697.5 49s97.069 9 102.5 12M697.5 61s97.069 9 102.5 12M697.5 73s97.069 9 102.5 12M697.5 85s97.069 9 102.5 12M697.5 97s97.069 9 102.5 12M697.5 109s97.069 9 102.5 12M697.5 121s97.069 9 102.5 12M697.5 133s97.069 9 102.5 12M122 1.5h125M122 15.5h125M122 29.5h125M122 43.5h125M122 57.5h125M122 71.5h125M122 85.5h125M122 99.5h125M122 113.5h125M122 127.5h125" stroke="#fff" stroke-miterlimit="10" fill="none"/></g><g stroke-miterlimit="10" fill="none"><path d="M613 460s-370.667 108-488-82c-4.973-8.053-8.667-28.799 13-31.388" stroke="#000" stroke-width="6"/><path d="M613 460s-370.667 108-488-82c-4.973-8.053-8.667-28.799 13-31.388" stroke="#fff" stroke-width="2"/><path d="M605 476s-370.667 108-488-82" stroke="#000" stroke-width="6"/><path d="M605 476s-370.667 108-488-82" stroke="#fff" stroke-width="2"/></g></svg>
